X:1041
L:1/8
M:4/4
K:C
 BEA |[M:6/8][K:G]SOSOO .!fermata!PMTuCOMB | Bed cBA | GFE B,EG | FBB{d} cBB | eBB{d} cBA | 
 Bed{d} cBA | GFE B,EG | FBB{d} cBA | GEE E2 :: g |{a} gec Gce | gaf{a} gec |{d} cBA EAc | 
 Be^d eBG | FBB GBB | FBA GFE | B,EG cBA | GEE E2 :|

